src/images/products/compute-white.svg

<svg xmlns="http://www.w3.org/2000/svg" xml:space="preserve" style="fill-rule:evenodd;clip-rule:evenodd;stroke-linejoin:round;stroke-miterlimit:2" viewBox="0 0 16 16"><path d="M16 1H0v6h16V1Zm-5.25 2.25c.411 0 .75.339.75.75s-.339.75-.75.75A.754.754 0 0 1 10 4c0-.411.339-.75.75-.75Zm1.5.75c0-.411.339-.75.75-.75s.75.339.75.75-.339.75-.75.75a.754.754 0 0 1-.75-.75ZM16 9H0v6h16V9Zm-5.25 2.25c.411 0 .75.339.75.75s-.339.75-.75.75A.754.754 0 0 1 10 12c0-.411.339-.75.75-.75Zm1.75.75c0-.411.339-.75.75-.75s.75.339.75.75-.339.75-.75.75a.754.754 0 0 1-.75-.75Z" style="fill:#fff;fill-rule:nonzero"/></svg>

<?xml version="1.0" encoding="UTF-8" standalone="no"?>
<!DOCTYPE svg PUBLIC "-//W3C//DTD SVG 1.1//EN" "http://www.w3.org/Graphics/SVG/1.1/DTD/svg11.dtd">
<svg width="100%" height="100%" viewBox="0 0 16 16" version="1.1" xmlns="http://www.w3.org/2000/svg" xmlns:xlink="http://www.w3.org/1999/xlink" xml:space="preserve" xmlns:serif="http://www.serif.com/" style="fill-rule:evenodd;clip-rule:evenodd;stroke-linejoin:round;stroke-miterlimit:2;">
    <path d="M16,1L0,1L0,7L16,7L16,1ZM10.75,3.25C11.161,3.25 11.5,3.589 11.5,4C11.5,4.411 11.161,4.75 10.75,4.75C10.339,4.75 10,4.411 10,4C10,3.589 10.339,3.25 10.75,3.25ZM12.25,4C12.25,3.589 12.589,3.25 13,3.25C13.411,3.25 13.75,3.589 13.75,4C13.75,4.411 13.411,4.75 13,4.75C12.589,4.75 12.25,4.411 12.25,4ZM16,9L0,9L0,15L16,15L16,9ZM10.75,11.25C11.161,11.25 11.5,11.589 11.5,12C11.5,12.411 11.161,12.75 10.75,12.75C10.339,12.75 10,12.411 10,12C10,11.589 10.339,11.25 10.75,11.25ZM12.5,12C12.5,11.589 12.839,11.25 13.25,11.25C13.661,11.25 14,11.589 14,12C14,12.411 13.661,12.75 13.25,12.75C12.839,12.75 12.5,12.411 12.5,12Z" style="fill:white;fill-rule:nonzero;"/>
</svg>
